assets/Tram car/Flat/tram_car_flat.svg

<svg width="32" height="32" viewBox="0 0 32 32" fill="none" xmlns="http://www.w3.org/2000/svg">
<path d="M30 27H2V29H30V27Z" fill="#9B9B9B"/>
<path d="M8 25.01C8 26.1146 7.10457 27.01 6 27.01C4.89543 27.01 4 26.1146 4 25.01C4 23.9054 4.89543 23.01 6 23.01C7.10457 23.01 8 23.9054 8 25.01ZM13.51 25.01C13.51 26.1146 12.6146 27.01 11.51 27.01C10.4054 27.01 9.50999 26.1146 9.50999 25.01C9.50999 23.9054 10.4054 23.01 11.51 23.01C12.6146 23.01 13.51 23.9054 13.51 25.01ZM20.49 27.01C21.5946 27.01 22.49 26.1146 22.49 25.01C22.49 23.9054 21.5946 23.01 20.49 23.01C19.3854 23.01 18.49 23.9054 18.49 25.01C18.49 26.1146 19.3854 27.01 20.49 27.01ZM28 25.01C28 26.1146 27.1046 27.01 26 27.01C24.8954 27.01 24 26.1146 24 25.01C24 23.9054 24.8954 23.01 26 23.01C27.1046 23.01 28 23.9054 28 25.01Z" fill="#212121"/>
<path d="M6.00977 25.51H11.0098C11.2898 25.51 11.5098 25.29 11.5098 25.01C11.5098 24.73 11.2898 24.51 11.0098 24.51H6.00977C5.72977 24.51 5.50977 24.73 5.50977 25.01C5.50977 25.29 5.72977 25.51 6.00977 25.51ZM20.4998 25.51H25.4998C25.7798 25.51 25.9998 25.29 25.9998 25.01C25.9998 24.73 25.7798 24.51 25.4998 24.51H20.4998C20.2198 24.51 19.9998 24.73 19.9998 25.01C19.9998 25.29 20.2198 25.51 20.4998 25.51Z" fill="#9B9B9B"/>
<path d="M2 19V23.96C2.06002 24.55 2.55019 25 3.1504 25H28.8396C29.4798 25 30 24.48 30 23.84V19H2Z" fill="#F92F60"/>
<path d="M30 10.9973V8.99909C29.94 8.40963 29.6002 8 29.0006 8H3.01506C2.37542 8 2.01562 8.35967 2.01562 8.99909V10.9973L4.50423 14.5041L2 18V19H30V17.9909L27.5014 14.5041L30 10.9973Z" fill="#D3D3D3"/>
<path d="M2 11H5.90438C6.50199 11 6.99004 11.5 7 12.1V16.9C7 17.51 6.51195 18 5.90438 18H2V11ZM10.1018 11H13.8982C14.5092 11 15 11.4959 15 12.0909V15.9091C15 16.5141 14.5092 17 13.8982 17H10.1018C9.49082 17 9 16.5141 9 15.9091V12.0909C9 11.4859 9.49082 11 10.1018 11ZM21.8982 11H18.1018C17.4908 11 17 11.4859 17 12.0909V15.9091C17 16.5141 17.4908 17 18.1018 17H21.8982C22.5092 17 23 16.5141 23 15.9091V12.0909C23 11.4959 22.5092 11 21.8982 11ZM26.1022 11H30V18H26.1022C25.491 18 25 17.51 25 16.9V12.1C25 11.49 25.491 11 26.1022 11Z" fill="#00A6ED"/>
<path d="M3 22H2V20H3C3.55 20 4 20.45 4 21C4 21.56 3.55 22 3 22Z" fill="#FFB02E"/>
<path d="M28.9904 4H3.00963C2.44983 4 2 3.55446 2 3C2 2.44555 2.44983 2 3.00963 2H28.9904C29.5502 2 30 2.44555 30 3C29.99 3.55446 29.5402 4 28.9904 4Z" fill="#BEBEBE"/>
<path d="M16.7247 3.31059L17.6893 4.27524C18.0896 4.67553 18.0896 5.32452 17.6893 5.72481L16.7247 6.68946C16.3244 7.08974 15.6754 7.08974 15.2751 6.68946L14.3105 5.72481C13.9102 5.32452 13.9102 4.67553 14.3105 4.27524L15.2751 3.31059C15.6754 2.9103 16.3244 2.9103 16.7247 3.31059ZM16.0176 4.0177C16.0078 4.00794 15.992 4.00794 15.9822 4.0177L15.0176 4.98235C15.0078 4.99211 15.0078 5.00794 15.0176 5.0177L15.9822 5.98235C15.992 5.99211 16.0078 5.99211 16.0176 5.98235L16.9822 5.0177C16.992 5.00794 16.992 4.99211 16.9822 4.98235L16.0176 4.0177Z" fill="#636363"/>
<path d="M24.81 6H7.17999C6.52999 6 6 6.53 6 7.18V8H26V7.18C26 6.53 25.47 6 24.81 6Z" fill="#9B9B9B"/>
</svg>

<svg xmlns="http://www.w3.org/2000/svg" width="32" height="32" fill="none"><path fill="#9B9B9B" d="M30 27H2v2h28v-2Z"/><path fill="#212121" d="M8 25.01a2 2 0 1 1-4 0 2 2 0 0 1 4 0Zm5.51 0a2 2 0 1 1-4 0 2 2 0 0 1 4 0Zm6.98 2a2 2 0 1 0 0-4 2 2 0 0 0 0 4Zm7.51-2a2 2 0 1 1-4 0 2 2 0 0 1 4 0Z"/><path fill="#9B9B9B" d="M6.01 25.51h5c.28 0 .5-.22.5-.5s-.22-.5-.5-.5h-5c-.28 0-.5.22-.5.5s.22.5.5.5Zm14.49 0h5c.28 0 .5-.22.5-.5s-.22-.5-.5-.5h-5c-.28 0-.5.22-.5.5s.22.5.5.5Z"/><path fill="#F92F60" d="M2 19v4.96c.06.59.55 1.04 1.15 1.04h25.69c.64 0 1.16-.52 1.16-1.16V19H2Z"/><path fill="#D3D3D3" d="M30 10.997V9C29.94 8.41 29.6 8 29 8H3.016c-.64 0-1 .36-1 1v1.997l2.49 3.507L2 18v1h28v-1.01l-2.499-3.486L30 10.997Z"/><path fill="#00A6ED" d="M2 11h3.904c.598 0 1.086.5 1.096 1.1v4.8c0 .61-.488 1.1-1.096 1.1H2v-7Zm8.102 0h3.796A1.1 1.1 0 0 1 15 12.09v3.82c0 .604-.49 1.09-1.102 1.09h-3.796A1.093 1.093 0 0 1 9 15.91v-3.82c0-.604.49-1.09 1.102-1.09Zm11.796 0h-3.796C17.49 11 17 11.486 17 12.09v3.82c0 .604.49 1.09 1.102 1.09h3.796C22.51 17 23 16.514 23 15.91v-3.82A1.1 1.1 0 0 0 21.898 11Zm4.204 0H30v7h-3.898C25.491 18 25 17.51 25 16.9v-4.8c0-.61.491-1.1 1.102-1.1Z"/><path fill="#FFB02E" d="M3 22H2v-2h1c.55 0 1 .45 1 1 0 .56-.45 1-1 1Z"/><path fill="#BEBEBE" d="M28.99 4H3.01C2.45 4 2 3.554 2 3s.45-1 1.01-1h25.98c.56 0 1.01.446 1.01 1-.01.554-.46 1-1.01 1Z"/><path fill="#636363" d="m16.725 3.31.964.965c.4.4.4 1.05 0 1.45l-.964.964c-.4.4-1.05.4-1.45 0l-.965-.964c-.4-.4-.4-1.05 0-1.45l.965-.964c.4-.4 1.05-.4 1.45 0Zm-.707.708a.025.025 0 0 0-.036 0l-.964.964a.025.025 0 0 0 0 .036l.964.964c.01.01.026.01.036 0l.964-.964a.025.025 0 0 0 0-.036l-.964-.964Z"/><path fill="#9B9B9B" d="M24.81 6H7.18C6.53 6 6 6.53 6 7.18V8h20v-.82C26 6.53 25.47 6 24.81 6Z"/></svg>
